X:1
T:The nightingale - Bateson
T:James Gibb editions
T:#
%%score { 1 | 2 } 3
L:1/8
Q:1/4=108
M:4/4
K:F
V:1 treble nm="Soprano I" snm="S"
V:2 treble 
V:3 treble-8 nm="Alto" snm="A"
V:1
"^The nightingale""^Thomas Bateson\n(1575-1630)"!mf! F4 A2 B2 | c4 z4 | z2 c2 B2 A2 | %3
w: The night- in-|gale,|so soon as|
 G2 (GA) (B2 AB) |[M:4/4] c3 c d2 f2 | f2 e2 d2 c2 | z2 c2 B2 A2 | G2 F2 G4 | A4 z4 | z4!p! f2 ff | %10
w: A- pril * bring\- * *|eth, so soon as|A- pril bring- eth,|so soon as|A- pril bring-|eth|Un- to her|
 e2 c2 d2 f2 | (e2 d4) ^c2 | d2 A2 c2 cc | B2 (AG) (FG) (AB) | c2 (BA) G4 | A4 z2!mf! A2 | %16
w: rest- ed sense a|per\- * fect|wak- ing, un- to her|rest- ed * sense * a *|per- fect * wak-|ing, While|
 G4 z2 F2 | E2 E3 F G2 | AA A3 B c2 | d2 c2 c2 =B2 | z2 c2 A2 F2 | B3 A G3 F | E2 F2 (F2 E2) | %23
w: late bare|earth proud of new|clo- thing, proud of new|clo- thing spring- eth,|Sings out her|woes, a thorn her|song- book mak\- *|
 F4 z2!p! A2 | B4 B4 | A2 F2 (B4- | B4 A4) | B4 f4 | f6 _e2 | d4 d4 | d6 c2 | B2 (AG F2 A2) | %32
w: ing; And|mourn- ful-|ly be- wail\-||ing, and|mourn- ful-|ly, and|mourn- ful-|ly be\- * * *|
 G4 G2 (A2 | B2 c2 d4) | _e8 | d2 d2 c3 B | A2 G2 A4 | =B4 z2 G2 | c3 B A2 G2 | A2 A2 z2 F2 | %40
w: wail- ing, be\-||wail-|ing, Her throat in|tunes ex- press-|eth: What|grief her breast op-|press- eth, what|
 f3 _e d3 c | B2 B2 z2 F2 | B3 A G3 F | E2 C2 z2 G2 | c3 B A2 G2 | F2 D2 z2 F2 | B3 A G3 F | %47
w: grief her breast op-|press- eth, what|grief her breast op-|press- eth, what|grief her breast op-|press- eth, what|grief her breast op-|
 E2 C2 z2!pp![Q:1/4=106] G2 |[Q:1/4=104] c3[Q:1/4=102] B[Q:1/4=100] A2[Q:1/4=99] (G[Q:1/4=98]F) | %49
w: press- eth, what|grief her breast op\- *|
[Q:1/4=96] (E2[Q:1/4=93] F4[Q:1/4=90] E2) |[Q:1/4=90] F16 |] %51
w: press\- * *|eth.|
V:2
 z2!mf! A2 F2 G2 | A3 A c2 d2 | e4 z4 | z2 c2 d2 f2 |[M:4/4] f2 e2 d4 | c4 z2 F2 | B2 A2 G2 F2 | %7
w: The night- in-|gale, the night- in-|gale,|so soon as|A- pril bring-|eth, so|soon as A- pril|
 (E2 D2) E4 | z4!p! c2 cc | B2 G2 (AGAB | cd) e2 f2 d2 | (e2 f2) e4 | f2 ff e2 c2 | d2 e2 f2 d2 | %14
w: bring\- * eth|Un- to her|rest- ed sense * * *|* * a per- fect|wak\- * ing,|un- to her rest- ed|sense a per- fect|
 (e2 f4 e2) | f4 z2!mf! c2 | c4 z2 B2 | c4 z4 | z2 c3 d e2 | f3 e d4 | e4 z2 f2 | d2 B2 _e3 d | %22
w: wak\- * *|ing, While|late bare|earth|proud of new|clo- thing spring-|eth, Sings|out her woes, a|
 c3 B G2 G2 | A2 A4 z2 | z8 | z4!p! d4 | _e6 e2 | d2 c2 (B4- | B4 A4) | B4 f4 | f6 _e2 | %31
w: thorn her song- book|mak- ing;||And|mourn- ful-|ly be- wail\-||ing, and|mourn- ful-|
 d2 d2 (d4- | d4 c4) | d2 c2 (B4- | B4 A4) | B2 B2 A3 G | ^F2 G2 G2 FF | G3 =F E2 (CD) | %38
w: ly be- wail\-||ing, be- wail\-||ing, Her throat in|tunes ex- press- eth: What|grief her breast op\- *|
 (E2 F4) E2 | z2 c2 f3 _e | d3 c B2 F2 | z2 F2 B3 A | G3 F E2 C2 | z2 G2 c3 B | A2 G2 F2 E2 | %45
w: press\- * eth,|what grief her|breast op- press- eth,|what grief her|breast op- press- eth,|what grief her|breast op- press- eth,|
 z2 F2 B3 A | G2 F2 E2 C2 | z2!pp! G2 c3 B | A2 (GF) E2 F2 | (G2 A2 G4) | A16 |] %51
w: what grief her|breast op- press- eth,|what grief her|breast, her * breast op-|press\- * *|eth.|
V:3
 z8 | z2!mf! F2 A2 B2 | c3 c d2 f2 | f2 e2 d4 |[M:4/4][K:treble-8] c2 (c4 =B2) | c2 c2 _B2 A2 | %6
w: |The night- in-|gale, so soon as|A- pril bring-|eth, bring\- *|eth, so soon as|
 G2 F2 (B2 F2) | c8 |!p! f2 ff e2 c2 | d2 e2 f2 d2 | c4 B3 B | c2 d2 A2 A2 | d2 dd c2 A2 | %13
w: A- pril bring\- *|eth|Un- to her rest- ed|sense a per- fect|wak- ing, a|per- fect wak- ing,|un- to her rest- ed|
 B2 c2 d2 d2 | c8 | F4!mf! f4 | e4 d4 | c2 c3 d e2 | f6 e2 | d2 d2 z2 g2 | e2 c2 f2 d2 | %21
w: sense a per- fect|wak-|ing, While|late bare|earth proud of new|clo- thing|spring- eth, Sings|out her woes, sings|
 B2 G2 c2 c2 | c2 c2 c2 c2 | F4 F2!p! f2 | d6 e2 | f4 d4 | c8 | B4 B4 | F8 | B6 B2 | B6 c2 | %31
w: out her woes, a|thorn her song- book|mak- ing; And|mourn- ful-|ly be-|wail-|ing, be-|wail-|ing, and|mourn- ful-|
 d4 d4 | _e8 | d4 d4 | c8 | B2 B2 F3 G | d2 _e2 d2 d2 | z2 G2 c3 B | A2 F2 c2 cc | f3 _e d3 c | %40
w: ly be-|wail-|ing, be-|wail-|ing, Her throat in|tunes ex- press- eth:|What grief her|breast op- press- eth, what|grief her breast op-|
 B4 B2 B2 | B6 B2 | B4 c4 | c8 | c4 z2 c2 | d3 c B2 B2 | B4 c2!pp! A2 | c3 B A2 G2 | A3 B c2 d2 | %49
w: press- eth, what|grief her|breast op-|press-|eth, what|grief her breast op-|press- eth, what|grief her breast, what|grief her breast op-|
 c8 | F16 |] %51
w: press-|eth.|

